ui/Images/view-conceal-symbolic.svg

<?xml version="1.0" encoding="UTF-8"?>
<svg id="katman_1" data-name="katman 1" xmlns="http://www.w3.org/2000/svg" version="1.1" viewBox="0 0 16 16">
  <defs>
    <style>
      .cls-1 {
        fill: #2e3436;
        stroke-width: 0px;
      }
    </style>
  </defs>
  <path class="cls-1" d="M14.6,13.1L4.3,2.9c-.2-.2-.5-.3-.8-.3H1.1l10.3,10.3c.2.2.5.3.8.3h2.4Z"/>
  <path class="cls-1" d="M9.5,10.9c1-.5,1.8-1.6,1.8-2.9s-1.4-3.2-3.2-3.2-2.4.7-2.9,1.8l4.3,4.3Z"/>
  <g>
    <path class="cls-1" d="M7.5,11.9c-.8,0-1.6-.3-2.3-.7-1.5-.8-2.6-1.8-3.7-3.1v-.2c.3-.4.7-.7,1-1.1l-.7-.7c-.2.2-.6.6-.8.8-.2.3-.5.6-.5.9v.4c0,.3.3.5.5.8.4.4.8.8,1.2,1.2,1.1,1,2.3,1.8,3.7,2.3.8.3,1.7.4,2.6.3l-.9-.9h0Z"/>
    <path class="cls-1" d="M14.4,6.5c-1-.9-1.9-1.8-3.1-2.4-.9-.5-1.9-.8-2.9-.9-1.4,0-2.7.3-3.9,1-.4.2-.7.5-1.1.7l.7.7c.5-.4,1-.7,1.6-.9.7-.3,1.6-.5,2.5-.5s1.7.3,2.5.7c1.5.8,2.7,1.9,3.8,3.1v.2c-1.2,1.4-2.6,2.6-4.3,3.4h-.1l.7.7c.3-.2.7-.3,1-.5,1.3-.8,2.4-1.8,3.4-2.9.4-.5.4-1,0-1.4,0,0-.7-.9-.8-1Z"/>
  </g>
</svg>

<?xml version="1.0" encoding="UTF-8" standalone="no"?>
<svg
   id="katman_1"
   data-name="katman 1"
   version="1.1"
   viewBox="0 0 64 64"
   sodipodi:docname="view-conceal-symbolic.svg"
   width="64"
   height="64"
   inkscape:version="1.2.2 (b0a8486541, 2022-12-01)"
   xmlns:inkscape="http://www.inkscape.org/namespaces/inkscape"
   xmlns:sodipodi="http://sodipodi.sourceforge.net/DTD/sodipodi-0.dtd"
   xmlns="http://www.w3.org/2000/svg"
   xmlns:svg="http://www.w3.org/2000/svg">
  <sodipodi:namedview
     id="namedview17"
     pagecolor="#ffffff"
     bordercolor="#000000"
     borderopacity="0.25"
     inkscape:showpageshadow="2"
     inkscape:pageopacity="0.0"
     inkscape:pagecheckerboard="0"
     inkscape:deskcolor="#d1d1d1"
     showgrid="false"
     inkscape:zoom="7.4721096"
     inkscape:cx="19.20475"
     inkscape:cy="31.182626"
     inkscape:window-width="1920"
     inkscape:window-height="1003"
     inkscape:window-x="0"
     inkscape:window-y="0"
     inkscape:window-maximized="1"
     inkscape:current-layer="katman_1" />
  <defs
     id="defs4">
    <style
       id="style2">
      .cls-1 {
        fill: #2e3436;
        stroke-width: 0px;
      }
    </style>
  </defs>
  <g
     id="g191"
     transform="matrix(4.0455759,0,0,4.0455759,-0.36460697,0.03995061)">
    <path
       class="cls-1"
       d="M 14.6,13.1 4.3,2.9 C 4.1,2.7 3.8,2.6 3.5,2.6 H 1.1 l 10.3,10.3 c 0.2,0.2 0.5,0.3 0.8,0.3 h 2.4 z"
       id="path6" />
    <path
       class="cls-1"
       d="M 9.5,10.9 C 10.5,10.4 11.3,9.3 11.3,8 11.3,6.7 9.9,4.8 8.1,4.8 6.3,4.8 5.7,5.5 5.2,6.6 Z"
       id="path8" />
    <g
       id="g14">
      <path
         class="cls-1"
         d="M 7.5,11.9 C 6.7,11.9 5.9,11.6 5.2,11.2 3.7,10.4 2.6,9.4 1.5,8.1 V 7.9 C 1.8,7.5 2.2,7.2 2.5,6.8 L 1.8,6.1 C 1.6,6.3 1.2,6.7 1,6.9 0.8,7.2 0.5,7.5 0.5,7.8 v 0.4 c 0,0.3 0.3,0.5 0.5,0.8 0.4,0.4 0.8,0.8 1.2,1.2 1.1,1 2.3,1.8 3.7,2.3 0.8,0.3 1.7,0.4 2.6,0.3 L 7.6,11.9 v 0 z"
         id="path10" />
      <path
         class="cls-1"
         d="M 14.4,6.5 C 13.4,5.6 12.5,4.7 11.3,4.1 10.4,3.6 9.4,3.3 8.4,3.2 7,3.2 5.7,3.5 4.5,4.2 4.1,4.4 3.8,4.7 3.4,4.9 L 4.1,5.6 C 4.6,5.2 5.1,4.9 5.7,4.7 6.4,4.4 7.3,4.2 8.2,4.2 c 0.9,0 1.7,0.3 2.5,0.7 1.5,0.8 2.7,1.9 3.8,3.1 v 0.2 c -1.2,1.4 -2.6,2.6 -4.3,3.4 h -0.1 l 0.7,0.7 c 0.3,-0.2 0.7,-0.3 1,-0.5 1.3,-0.8 2.4,-1.8 3.4,-2.9 0.4,-0.5 0.4,-1 0,-1.4 0,0 -0.7,-0.9 -0.8,-1 z"
         id="path12" />
    </g>
  </g>
</svg>
